X:1
T:Fitzwilliam, 88.86
T:Fitzwilliam, 88.86
T:English traditional melody
T:Public Domain Courtesy of the Cyber Hymnal™
C:English traditional melody
Z:Public Domain
Z:Courtesy of the Cyber Hymnal™
%%score ( 1 2 ) ( 3 4 )
L:1/8
Q:1/4=110
M:4/4
K:G
V:1 treble 
V:2 treble 
V:3 bass 
V:4 bass 
V:1
 (GA) | [GB]2 [GB]2 [Gc]2 [Fc]2 | [GB]3 [Fc] [GB]2 [Dd]2 | [Ec]2 [EB]2 [EA]2 [EG]2 | %4
 [DF]3 [^CG] [DF]2 (FG) | [DA]2 [DA]2 [DG]2 (FE) | [DF]3 [DG] [DF]2 [GB]2 | %7
 [EA]2 [EG]2 [DG]2 [DF]2 | [DG]6 |] %9
V:2
 D2 | x8 | x8 | x8 | x6 D2 | x6 ^C2 | x8 | x8 | x6 |] %9
V:3
 (B,C) | [G,D]2 [G,D]2 D2 [A,C]2 | [G,D]3 [A,C] [G,D]2 [B,,G,]2 | G,2 [E,G,]2 C2 (CB,) | %4
 [D,A,]3 [E,G,] [D,A,]2 A,2 | [F,A,]2 [F,A,]2 [E,B,]2 [A,,A,]2 | [D,A,]3 [B,,G,] [D,A,]2 [G,,D]2 | %7
 C2 (CB,) [D,A,]2 [D,A,]2 | [G,,B,]6 |] %9
V:4
 G,2 | x4 (CB,) x2 | x8 | (C,D,) x (A,, B,,) C,2 x | x6 (D,E,) | x8 | x8 | (A,,B,,) C,2 x4 | x6 |] %9

